X: 1
T: String Quartet in E Major opus 17 no 1 mvt 4
C: Franz Joseph Haydn
%%abc-version 2.0
%%abcx-abcm2ps-target-version 5.9.1 (29 Sep 2008)
%%abc-creator hum2abc beta
%%abcx-conversion-date 2021/02/14 14:38:22
%%abc-copyright Copyright (c) 1994, 2000 Center for Computer Assisted Research in the Humanities
%%abc-edited-by Frances Bennion
%%abcx-initial-encoding-date 1997/04/15
%%gracespace 0 6 6
%%humdrum-veritas 406698097
%%humdrum-veritas-data 3543311968
%%linebreak <none>
%%barnumbers 0
L: 1/8
M: 2/4
N: Derived from op17n1-04.krn
Q: "Finale: Presto" 1/4=160
%%staves [1 2 3 4]
V: 1
V: 2
V: 3 clef=alto
V: 4 clef=bass
K: E
[V:1]z3 B [I:setbarnb1]|
[V:2]z3 G, |
[V:3]z3 z |
[V:4]z3 z |
[V:1]GA Bc |
[V:2]EF GA |
[V:3]z4 |
[V:4]z4 |
[V:1]de fg |
[V:2]Bc de |
[V:3]z4 |
[V:4]z4 |
[V:1]az gz |
[V:2]fz ez |
[V:3]z4 |
[V:4]z4 |
[V:1]f3/e//f// ez |
[V:2]cz Bz |
[V:3]Az Gz |
[V:4]z4 |
[V:1][c'A]z [eb]z |
[V:2]az gz |
[V:3]Ez Ez |
[V:4]A,,z E,z |
[V:1]z3 B |
[V:2]z3 G |
[V:3]z4 |
[V:4]z4 |
[V:1]GA Bc |
[V:2]EF GA |
[V:3]z4 |
[V:4]z4 |
[V:1]de fg |
[V:2]Bc de |
[V:3]z4 |
[V:4]z4 |
[V:1]az gz |
[V:2]fz ez |
[V:3]z4 |
[V:4]z4 |
[V:1]f3/e//f// ez |
[V:2]cz Bz |
[V:3]Az Gz |
[V:4]z4 |
[V:1][Fd]z [eG]z |
[V:2][B,A]z [B,G]z |
[V:3]Fz Ez |
[V:4]B,,z E,z |
[V:1]z4 |
[V:2]z4 |
[V:3]z3 B, |
[V:4]z3 G, |
[V:1]z4 |
[V:2]z4 |
[V:3]G,A, B,C |
[V:4]E,F, G,A, |
[V:1]ze ee |
[V:2]zE EE |
[V:3]B,3 B, |
[V:4]G,3 G, |
[V:1]e4- |
[V:2]E4- |
[V:3]A,B, C=D |
[V:4]F,G, A,B, |
[V:1]ee ee |
[V:2]EE EE |
[V:3]C3 C |
[V:4]A,3 A, |
[V:1]e4- |
[V:2]E4- |
[V:3]B,C =DE |
[V:4]G,A, B,C |
[V:1]ee ee |
[V:2]EE EE |
[V:3]=D3 D |
[V:4]B,3 B, |
[V:1]e4 |
[V:2]EE EE |
[V:3]CC CC |
[V:4]A,A, A,A, |
[V:1]=dc BA |
[V:2]EE EE |
[V:3]CC CC |
[V:4]A,A, A,A, |
[V:1]G2 G2 |
[V:2]EE EE |
[V:3]=DD DD |
[V:4]B,B, B,B, |
[V:1]G3 E |
[V:2]EE EE |
[V:3]=DD DD |
[V:4]B,B, B,B, |
[V:1]A2 cA |
[V:2]EE EE |
[V:3]CC CC |
[V:4]A,A, A,A, |
[V:1]G2 FE |
[V:2]EE EE |
[V:3]=DD DD |
[V:4]B,B, B,B, |
[V:1]A2 cA |
[V:2]EE EE |
[V:3]CC CC |
[V:4]A,A, A,A, |
[V:1]G2 FE |
[V:2]EE EE |
[V:3]=DD DD |
[V:4]B,B, B,B, |
[V:1]A2 A3/A/ |
[V:2]EE EE |
[V:3]CC CC |
[V:4]A,A, A,A, |
[V:1]A2 A/B//c//=d//e//f//g// |
[V:2]EE EE |
[V:3]CC CC |
[V:4]A,A, A,A, |
[V:1]a2 a3/a/ |
[V:2]Dd dd |
[V:3]A,A, A,A, |
[V:4]F,F, F,F, |
[V:1]a4 |
[V:2]dd dd |
[V:3]A,A, A,A, |
[V:4]F,F, F,F, |
[V:1]g2 E3/g/ |
[V:2]ee ee |
[V:3]B,B, B,B, |
[V:4]E,E, E,E, |
[V:1]^a2 E3/a/ |
[V:2]ee ee |
[V:3]EE EE |
[V:4]C,C, C,C, |
[V:1]b2 [B2b2] |
[V:2]d2 d2 |
[V:3]F2 F2 |
[V:4]B,,2 B,,2 |
[V:1][B2b2] zf |
[V:2]d2 zd |
[V:3]F2 z2 |
[V:4]B,,2 z2 |
[V:1]de fg |
[V:2]Bc de |
[V:3]z4 |
[V:4]z4 |
[V:1]fb ^ag |
[V:2]dg fe |
[V:3]z4 |
[V:4]z4 |
[V:1]f2 ed |
[V:2]d2 cB |
[V:3]B,2 z2 |
[V:4]z4 |
[V:1]f2 ed |
[V:2]d2 cB |
[V:3]B,2 z2 |
[V:4]z4 |
[V:1]cd ef |
[V:2]^AB cd |
[V:3]F2 z2 |
[V:4]z4 |
[V:1]ee' c'^a |
[V:2]c2 z2 |
[V:3]z4 |
[V:4]z4 |
[V:1]e2 dc |
[V:2]c2 B^A |
[V:3]F2 z2 |
[V:4]z4 |
[V:1]e2 dc |
[V:2]c2 B^A |
[V:3]F2 z2 |
[V:4]z4 |
[V:1]=d4 |
[V:2]FF FF |
[V:3]z4 |
[V:4]B,4 |
[V:1]e=d cd |
[V:2]FF FF |
[V:3]z4 |
[V:4]CB, ^A,B, |
[V:1]c2 c2 |
[V:2]FF FF |
[V:3]z^E, F,E, |
[V:4]^A,2 A,2 |
[V:1]c4 |
[V:2]FF FF |
[V:3]F,^E, F,E, |
[V:4]^A,4 |
[V:1]B4 |
[V:2]FF FF |
[V:3]F,2 z2 |
[V:4]=D4 |
[V:1]cB ^AB |
[V:2]FF FF |
[V:3]z4 |
[V:4]E=D CD |
[V:1]^A2 A2 |
[V:2]FF FF |
[V:3]z^E FE |
[V:4]C2 C2 |
[V:1]^A4 |
[V:2]FF FF |
[V:3]FE =DC |
[V:4]C4 |
[V:1]f4- |
[V:2]=d4- |
[V:3]B,B, B,B, |
[V:4]B,B, B,B, |
[V:1]f2 ^e2 |
[V:2]d2 c2 |
[V:3]B,B, B,B, |
[V:4]B,B, B,B, |
[V:1]f2 e2 |
[V:2]=d2 =G2 |
[V:3]B,B, B,B, |
[V:4]B,B, B,B, |
[V:1]=d2 c2 |
[V:2]F2 E2 |
[V:3]B,B, B,B, |
[V:4]B,B, B,B, |
[V:1]B4 |
[V:2]=D4 |
[V:3]B,B, B,B, |
[V:4]B,B, B,B, |
[V:1]=d4 |
[V:2]F4 |
[V:3]B,B, B,B, |
[V:4]B,B, B,B, |
[V:1]^EG B=d |
[V:2]^EE EE |
[V:3]=DD DD |
[V:4]B,B, B,B, |
[V:1]^eg b=d' |
[V:2]^EE EE |
[V:3]=DD DD |
[V:4]B,B, B,B, |
[V:1]=d'4 |
[V:2]^E4 |
[V:3]=DD DD |
[V:4]B,B, B,B, |
[V:1]^E4 |
[V:2]G4 |
[V:3]=DD DD |
[V:4]B,B, B,B, |
[V:1]E^A ce |
[V:2]FF FF |
[V:3]CC CC |
[V:4]^A,A, A,A, |
[V:1]^ac' e'e' |
[V:2]FF FF |
[V:3]CC CC |
[V:4]^A,A, A,A, |
[V:1]e'4 |
[V:2]F4- |
[V:3]CC CC |
[V:4]^A,A, A,A, |
[V:1]E4 |
[V:2]F4- |
[V:3]CC CC |
[V:4]^A,A, A,A, |
[V:1]D/F/B BB |
[V:2]F4 |
[V:3]DD DD |
[V:4]B,B, B,B, |
[V:1]G/B/e ee |
[V:2]G2 c2 |
[V:3]EE EE |
[V:4]E,E, E,E, |
[V:1]F4 |
[V:2]BB BB |
[V:3]DD DD |
[V:4]F,F, F,F, |
[V:1]c4 |
[V:2]^AA AA |
[V:3]FF FF |
[V:4]E,E, E,E, |
[V:1]d/f/b bb |
[V:2]B4- |
[V:3]FF FF |
[V:4]D,D, D,D, |
[V:1](3gfe (3e'd'c' |
[V:2]B2 c2 |
[V:3]GG GG |
[V:4]E,E, E,E, |
[V:1]f4 |
[V:2]BB BB |
[V:3]DD DD |
[V:4]F,F, F,F, |
[V:1]c'4 |
[V:2]^AA AA |
[V:3]EE EE |
[V:4]F,F, F,F, |
[V:1]bz2 B |
[V:2]B2 z2 |
[V:3]D2 z2 |
[V:4]B,,2 z2 |
[V:1]DE FB |
[V:2]B,C Dz |
[V:3]z4 |
[V:4]z4 |
[V:1]EF GB |
[V:2]CD Ez |
[V:3]z4 |
[V:4]z4 |
[V:1]FG AB |
[V:2]DE Fz |
[V:3]z4 |
[V:4]z4 |
[V:1]G2 g/f/g/^a/ |
[V:2]B,B BB |
[V:3]GG GG |
[V:4]E,E, E,E, |
[V:1]bg fe |
[V:2]BB BB |
[V:3]GG GG |
[V:4]E,E, E,E, |
[V:1]d/c/d/e/ fd |
[V:2]BB BB |
[V:3]FF FF |
[V:4]F,F, F,F, |
[V:1]c4 |
[V:2]^AA AA |
[V:3]EE EE |
[V:4]F,F, F,F, |
[V:1]B2 zB |
[V:2]B2 z2 |
[V:3]D2 z2 |
[V:4]B,,2 z2 |
[V:1]DE FB |
[V:2]B,C Dz |
[V:3]z4 |
[V:4]z4 |
[V:1]EF GB |
[V:2]CD Ez |
[V:3]z4 |
[V:4]z4 |
[V:1]FG AB |
[V:2]DE FG |
[V:3]z4 |
[V:4]z4 |
[V:1]GA Bc |
[V:2]EF GA |
[V:3]z4 |
[V:4]z4 |
[V:1]de fg |
[V:2]Bc de |
[V:3]z4 |
[V:4]z4 |
[V:1]az gz |
[V:2]fz ez |
[V:3]z4 |
[V:4]z4 |
[V:1]f3/e//f// ez |
[V:2]cz Bz |
[V:3]Az Gz |
[V:4]z4 |
[V:1][cc']z [eb]z |
[V:2]az gz |
[V:3]Ez Ez |
[V:4]A,,z E,z |
[V:1]z3 B |
[V:2]z3 G |
[V:3]z4 |
[V:4]z4 |
[V:1]GA Bc |
[V:2]EF GA |
[V:3]z4 |
[V:4]z4 |
[V:1]de fg |
[V:2]Bc de |
[V:3]z4 |
[V:4]z4 |
[V:1]az gz |
[V:2]fz ez |
[V:3]z4 |
[V:4]z4 |
[V:1]f3/e//f// ez |
[V:2]cz Bz |
[V:3]Az Gz |
[V:4]z4 |
[V:1][dF]z [eG]z |
[V:2][AB,]z [B,G]z |
[V:3]Fz Ez |
[V:4]B,,z E,z |
[V:1]z4 |
[V:2]z3 B, |
[V:3]z3 G, |
[V:4]z4 |
[V:1]z4 |
[V:2]G,A, B,C |
[V:3]E,F, G,A, |
[V:4]z4 |
[V:1]ze ee |
[V:2]B,3 B, |
[V:3]G,3 G, |
[V:4]z4 |
[V:1]e4- |
[V:2]A,B, C=D |
[V:3]F,G, A,B, |
[V:4]z4 |
[V:1]ee ee |
[V:2]C3 C |
[V:3]A,3 A, |
[V:4]z4 |
[V:1]e4- |
[V:2]B,C =DE |
[V:3]G,A, B,C |
[V:4]z4 |
[V:1]ee ee |
[V:2]=D3 D |
[V:3]B,3 B, |
[V:4]z4 |
[V:1]e4- |
[V:2]C=D EF |
[V:3]A,B, C=D |
[V:4]z4 |
[V:1]e2 ^e2 |
[V:2]E=D CB, |
[V:3]CB, A,G, |
[V:4]z2 C,2 |
[V:1]f4- |
[V:2]^A,B, CD |
[V:3]F,G, ^A,B, |
[V:4]F,2 z2 |
[V:1]ff ff |
[V:2]C3 C |
[V:3]^A,3 A, |
[V:4]z4 |
[V:1]f4- |
[V:2]B,C DE |
[V:3]G,^A, B,C |
[V:4]z4 |
[V:1]ff ff |
[V:2]D3 D |
[V:3]B,3 B, |
[V:4]z4 |
[V:1]f4- |
[V:2]CD EF |
[V:3]^A,B, CD |
[V:4]z4 |
[V:1]ff ff |
[V:2]E3 E |
[V:3]C3 C |
[V:4]z4 |
[V:1]f4- |
[V:2]DE FG |
[V:3]B,C DE |
[V:4]z4 |
[V:1]f2 ^^f2 |
[V:2]FE DC |
[V:3]DC B,^A, |
[V:4]z2 D,2 |
[V:1]g4- |
[V:2]^B,C DE |
[V:3]G,^A, ^B,C |
[V:4]G,2 z2 |
[V:1]gg gg |
[V:2]D3 D |
[V:3]^B,3 B, |
[V:4]z4 |
[V:1]g4- |
[V:2]CD EF |
[V:3]^A,^B, CD |
[V:4]z4 |
[V:1]gg gg |
[V:2]E3 E |
[V:3]C3 C |
[V:4]z4 |
[V:1]g4- |
[V:2]DE FG |
[V:3]^B,C DE |
[V:4]z4 |
[V:1]gg gg |
[V:2]F3 F |
[V:3]D3 D |
[V:4]z4 |
[V:1]g4- |
[V:2]e4- |
[V:3]CC CC |
[V:4]CC CC |
[V:1]g2 ^^f2 |
[V:2]e2 d2 |
[V:3]CC CC |
[V:4]CC CC |
[V:1]g2 f2 |
[V:2]e2 A2 |
[V:3]CC CC |
[V:4]CC CC |
[V:1]e2 d2 |
[V:2]G2 F2 |
[V:3]CC CC |
[V:4]CC CC |
[V:1]c4 |
[V:2]E4 |
[V:3]CC CC |
[V:4]CC CC |
[V:1]e4 |
[V:2]G4 |
[V:3]CC CC |
[V:4]CC CC |
[V:1]e4 |
[V:2]B4 |
[V:3]EE EE |
[V:4]G,G, G,G, |
[V:1]e=d cB |
[V:2]E4 |
[V:3]B,=D DD |
[V:4]G,G, G,G, |
[V:1]A2 cA |
[V:2]EE EE |
[V:3]CC CC |
[V:4]A,A, A,A, |
[V:1]G2 FE |
[V:2]EE EE |
[V:3]=DD DD |
[V:4]B,B, B,B, |
[V:1]A2 cA |
[V:2]EE EE |
[V:3]CC CC |
[V:4]A,A, A,A, |
[V:1]G2 FE |
[V:2]EE EE |
[V:3]=DD DD |
[V:4]B,B, B,B, |
[V:1]A2 cA |
[V:2]EE EE |
[V:3]CC CC |
[V:4]A,A, A,A, |
[V:1]G2 BG |
[V:2]EE EE |
[V:3]CC CC |
[V:4]A,A, A,A, |
[V:1]^^F4- |
[V:2]E2 E2 |
[V:3]C4- |
[V:4]A,4- |
[V:1]F4 |
[V:2]D2 C2 |
[V:3]C4- |
[V:4]A,4 |
[V:1]^^F2 F2- |
[V:2]E2 E2 |
[V:3]C4- |
[V:4]A,,4- |
[V:1]F2 ^^F2 |
[V:2]D2 C2 |
[V:3]C4 |
[V:4]A,,4 |
[V:1]F4 |
[V:2]^B,4 |
[V:3]D4 |
[V:4]G,,4 |
[V:1]E/G/c cc |
[V:2]EE EE |
[V:3]CC CC |
[V:4]C,C, C,C, |
[V:1](3agf (3edc |
[V:2]DD DD |
[V:3]CC CC |
[V:4]F,F, F,F, |
[V:1]G4 |
[V:2]EE EE |
[V:3]CC CC |
[V:4]G,G, G,G, |
[V:1]d4 |
[V:2]^B,B, B,B, |
[V:3]GG GG |
[V:4]F,F, F,F, |
[V:1]c/e/c' c'c' |
[V:2]CC CC |
[V:3]GG GE |
[V:4]E,E, E,E, |
[V:1](3agf (3edc |
[V:2]CC CC |
[V:3]DD DD |
[V:4]F,F, F,F, |
[V:1]G4 |
[V:2]CC CC |
[V:3]EE EE |
[V:4]G,G, G,G, |
[V:1]d4 |
[V:2]^B,B, B,B, |
[V:3]FF FF |
[V:4]G,G, G,G, |
[V:1]c2 zc |
[V:2]C2 z2 |
[V:3]E2 z2 |
[V:4]C,2 z2 |
[V:1]EF Gc |
[V:2]CD Ez |
[V:3]z4 |
[V:4]z4 |
[V:1]FG Ac |
[V:2]DE Fz |
[V:3]z4 |
[V:4]z4 |
[V:1]Ge gf |
[V:2]Ec ed |
[V:3]z4 |
[V:4]z4 |
[V:1]ed cB |
[V:2]cB AG |
[V:3]z4 |
[V:4]z4 |
[V:1]AB cB |
[V:2]FG AG |
[V:3]z4 |
[V:4]z4 |
[V:1]AG FE |
[V:2]FE DC |
[V:3]z4 |
[V:4]z4 |
[V:1]DE FB |
[V:2]B,C Dz |
[V:3]z4 |
[V:4]z4 |
[V:1]EF GB |
[V:2]CD Ez |
[V:3]z4 |
[V:4]z4 |
[V:1]FG AB |
[V:2]DE Fz |
[V:3]z4 |
[V:4]z4 |
[V:1]GA Bc |
[V:2]EF GA |
[V:3]z4 |
[V:4]z4 |
[V:1]de fg |
[V:2]Bc de |
[V:3]z4 |
[V:4]z4 |
[V:1]az gz |
[V:2]fz ez |
[V:3]z4 |
[V:4]z4 |
[V:1]f3/e//f// ez |
[V:2]cz Bz |
[V:3]Az Gz |
[V:4]z4 |
[V:1][Ac']z [be]z |
[V:2]az gz |
[V:3]Ez Ez |
[V:4]A,,z E,z |
[V:1]z3 g |
[V:2]z3 e |
[V:3]z4 |
[V:4]z4 |
[V:1]ba gf |
[V:2]gf ed |
[V:3]z4 |
[V:4]z4 |
[V:1]ed cB |
[V:2]cB AG |
[V:3]z4 |
[V:4]z4 |
[V:1]Az Gz |
[V:2]Fz Ez |
[V:3]z4 |
[V:4]z4 |
[V:1]cz Bz |
[V:2]Ez Ez |
[V:3]A,z G,z |
[V:4]z4 |
[V:1]dz ez |
[V:2]Az Gz |
[V:3]F,z E,z |
[V:4]B,,z E,z |
[V:1]z4 |
[V:2]z4 |
[V:3]z4 |
[V:4]z4 |
[V:1]=g4 |
[V:2]BB BB |
[V:3]z4 |
[V:4]E4 |
[V:1]a=g fg |
[V:2]BB BB |
[V:3]z4 |
[V:4]FE DE |
[V:1]f2 f2 |
[V:2]BB BB |
[V:3]z4 |
[V:4]D2 D2 |
[V:1]f4 |
[V:2]BB BB |
[V:3]z4 |
[V:4]D4 |
[V:1]e4 |
[V:2]BB BB |
[V:3]z4 |
[V:4]=G4 |
[V:1]fe de |
[V:2]BB BB |
[V:3]z4 |
[V:4]A=G FG |
[V:1]d2 d2 |
[V:2]BB BB |
[V:3]z4 |
[V:4]F2 F2 |
[V:1]d4 |
[V:2]BB BB |
[V:3]z4 |
[V:4]F4 |
[V:1]=G4 |
[V:2]B,B, B,B, |
[V:3]E,4 |
[V:4]z4 |
[V:1]A=G FG |
[V:2]B,B, B,B, |
[V:3]F,E, D,E, |
[V:4]z4 |
[V:1]F2 F2 |
[V:2]B,4- |
[V:3]D,2 D,2 |
[V:4]z^A,, B,,A,, |
[V:1]F4 |
[V:2]B,4 |
[V:3]D,4 |
[V:4]B,,^A,, B,,A,, |
[V:1]E4 |
[V:2]B,B, B,B, |
[V:3]=G,4 |
[V:4]B,,2 z2 |
[V:1]FE DE |
[V:2]B,B, B,B, |
[V:3]A,=G, F,G, |
[V:4]z4 |
[V:1]D2 D2 |
[V:2]B,4- |
[V:3]F,2 F,2 |
[V:4]z^A,, B,,A,, |
[V:1]D4 |
[V:2]B,4 |
[V:3]F,4 |
[V:4]B,,A,, =G,,F,, |
[V:1]b4- |
[V:2]=g4- |
[V:3]E,E EE |
[V:4]E,,E, E,E, |
[V:1]b2 ^a2 |
[V:2]g2 f2 |
[V:3]EE EE |
[V:4]E,E, E,E, |
[V:1]b2 a2 |
[V:2]=g2 =c2 |
[V:3]EE EE |
[V:4]E,E, E,E, |
[V:1]=g2 f2 |
[V:2]B2 A2 |
[V:3]EE EE |
[V:4]E,E, E,E, |
[V:1]e4 |
[V:2]=G4 |
[V:3]EE EE |
[V:4]E,E, E,E, |
[V:1]=g4 |
[V:2]B4 |
[V:3]EE EE |
[V:4]E,E, E,E, |
[V:1]^Ac e=g |
[V:2]^AA AA |
[V:3]=GG GG |
[V:4]E,E, E,E, |
[V:1]^ac' e'=g' |
[V:2]^AA AA |
[V:3]=GG GG |
[V:4]E,E, E,E, |
[V:1]=g'4 |
[V:2]^A4 |
[V:3]=G4- |
[V:4]E,E, E,E, |
[V:1]^A4 |
[V:2]c4 |
[V:3]G4 |
[V:4]E,E, E,E, |
[V:1]Ad fa |
[V:2]BB BB |
[V:3]FF FF |
[V:4]D,D, D,D, |
[V:1]bd' f'a' |
[V:2]BB BB |
[V:3]FF FF |
[V:4]D,D, D,D, |
[V:1]a'4 |
[V:2]B4- |
[V:3]F4- |
[V:4]D,D, D,D, |
[V:1]A4 |
[V:2]B4- |
[V:3]F4 |
[V:4]D,D, D,D, |
[V:1]G/B/e ee |
[V:2]B4 |
[V:3]GG GG |
[V:4]E,E, E,E, |
[V:1]c/f/a aa |
[V:2]c2 f2 |
[V:3]AA AA |
[V:4]A,A, A,A, |
[V:1]B4 |
[V:2]ee ee |
[V:3]GG GG |
[V:4]B,B, B,B, |
[V:1]f4 |
[V:2]dd dd |
[V:3]AA AA |
[V:4]B,B, B,B, |
[V:1](3gfe e'e' |
[V:2]e4- |
[V:3]BB BB |
[V:4]E,E, G,G, |
[V:1](3c'ba (3gfe |
[V:2]e2 f2 |
[V:3]cc cc |
[V:4]A,A, A,A, |
[V:1]B4 |
[V:2]ee ee |
[V:3]GG GG |
[V:4]B,B, B,B, |
[V:1]f4 |
[V:2]dd dd |
[V:3]AA AA |
[V:4]B,B, B,B, |
[V:1]e2 ze |
[V:2]e2 z2 |
[V:3]G2 z2 |
[V:4]E,2 z2 |
[V:1]GA Be |
[V:2]EF Gz |
[V:3]z4 |
[V:4]z4 |
[V:1]AB ce |
[V:2]FG Az |
[V:3]z4 |
[V:4]z4 |
[V:1]Bc =de |
[V:2]GA Bz |
[V:3]z4 |
[V:4]z4 |
[V:1]c2 c'/b/c'/d'/ |
[V:2]Ee ee |
[V:3]CC CC |
[V:4]A,A, A,A, |
[V:1]e'c' ba |
[V:2]ee ee |
[V:3]CC CC |
[V:4]A,A, A,A, |
[V:1]g/f/g/a/ be |
[V:2]ee ee |
[V:3]B,B, B,B, |
[V:4]B,B, B,B, |
[V:1]f4 |
[V:2]dd dd |
[V:3]A,A, A,A, |
[V:4]B,B, B,B, |
[V:1]e2 zB |
[V:2]e2 z2 |
[V:3]G,2 z2 |
[V:4]E,2 z2 |
[V:1]DE FB |
[V:2]B,C Dz |
[V:3]z4 |
[V:4]z4 |
[V:1]EF GB |
[V:2]CD Ez |
[V:3]z4 |
[V:4]z4 |
[V:1]FG Az |
[V:2]DE Fz |
[V:3]z4 |
[V:4]z4 |
[V:1]e2 z2 |
[V:2]e2 z2 |
[V:3]G,2 z2 |
[V:4]E,2 z2 |
[V:1]z4 |
[V:2]z4 |
[V:3]z3 B, |
[V:4]z3 G, |
[V:1]z4 |
[V:2]z4 |
[V:3]G,A, B,C |
[V:4]E,F, G,A, |
[V:1]ze ee |
[V:2]zE EE |
[V:3]B,3 B, |
[V:4]G,3 G, |
[V:1]e4- |
[V:2]E4- |
[V:3]A,B, C=D |
[V:4]F,G, A,B, |
[V:1]ee ee |
[V:2]EE EE |
[V:3]C3 C |
[V:4]A,3 A, |
[V:1]e4- |
[V:2]E4- |
[V:3]B,C =DE |
[V:4]G,A, B,C |
[V:1]ee ee |
[V:2]EE EE |
[V:3]=D3 D |
[V:4]B,3 B, |
[V:1]e4 |
[V:2]EE EE |
[V:3]CC CC |
[V:4]A,A, A,A, |
[V:1]=dc BA |
[V:2]EE EE |
[V:3]CC CC |
[V:4]A,A, A,A, |
[V:1]G2 G2 |
[V:2]EE EE |
[V:3]=DD DD |
[V:4]B,B, B,B, |
[V:1]G3 E |
[V:2]EE EE |
[V:3]=DD DD |
[V:4]B,B, B,B, |
[V:1]A2 cA |
[V:2]EE EE |
[V:3]CC CC |
[V:4]A,A, A,A, |
[V:1]G2 FE |
[V:2]EE EE |
[V:3]=DD DD |
[V:4]B,B, B,B, |
[V:1]A2 cA |
[V:2]EE EE |
[V:3]CC CC |
[V:4]A,A, A,A, |
[V:1]G2 FE |
[V:2]EE EE |
[V:3]=DD DD |
[V:4]B,B, B,B, |
[V:1]A2 cA |
[V:2]EE EE |
[V:3]CC CC |
[V:4]A,A, A,A, |
[V:1]GF ED |
[V:2]A,A, A,A, |
[V:3]F,F, F,F, |
[V:4]B,B, B,B, |
[V:1]E2 GE |
[V:2]G,4 |
[V:3]E,4 |
[V:4]E,E, E,E, |
[V:1]D2 CB, |
[V:2]A,4 |
[V:3]F,4 |
[V:4]B,,B,, B,,B,, |
[V:1]E2 GE |
[V:2]G,4 |
[V:3]E,4 |
[V:4]E,,E,, E,,E,, |
[V:1]D2 CB, |
[V:2]A,4 |
[V:3]F,4 |
[V:4]B,,B,, B,,B,, |
[V:1]E2 E2 |
[V:2]G,2 G,2 |
[V:3]E,2 E,2 |
[V:4]E,,2 E,,2 |
[V:1]E2 z2 |]
[V:2]G,2 z2 |]
[V:3]E,2 z2 |]
[V:4]E,,2 z2 |]

